img/iconmonstr-photo-camera-8.svg

<svg xmlns="http://www.w3.org/2000/svg" width="24" height="24" viewBox="0 0 24 24"><path d="M16 12c0 2.206-1.794 4-4 4s-4-1.794-4-4 1.794-4 4-4 4 1.794 4 4zm8-7v14c0 2.761-2.238 5-5 5h-14c-2.761 0-5-2.239-5-5v-14c0-2.761 2.239-5 5-5h14c2.762 0 5 2.239 5 5zm-6 7c0-3.313-2.687-6-6-6s-6 2.687-6 6 2.687 6 6 6 6-2.687 6-6zm3-8c0-.552-.448-1-1-1s-1 .448-1 1 .448 1 1 1 1-.448 1-1z"/></svg>

<svg width="24" height="24" viewBox="0 0 24 24" fill="none" xmlns="http://www.w3.org/2000/svg">
<g clip-path="url(#clip0_802_12)">
<path d="M16 12C16 14.206 14.206 16 12 16C9.794 16 8 14.206 8 12C8 9.794 9.794 8 12 8C14.206 8 16 9.794 16 12ZM24 5V19C24 21.761 21.762 24 19 24H5C2.239 24 0 21.761 0 19V5C0 2.239 2.239 0 5 0H19C21.762 0 24 2.239 24 5ZM18 12C18 8.687 15.313 6 12 6C8.687 6 6 8.687 6 12C6 15.313 8.687 18 12 18C15.313 18 18 15.313 18 12ZM21 4C21 3.448 20.552 3 20 3C19.448 3 19 3.448 19 4C19 4.552 19.448 5 20 5C20.552 5 21 4.552 21 4Z" fill="#E6E6E6"/>
</g>
<defs>
<clipPath id="clip0_802_12">
<rect width="24" height="24" fill="white"/>
</clipPath>
</defs>
</svg>
